images/instagram.svg

<svg width="25" height="24" viewBox="0 0 25 24" fill="none" xmlns="http://www.w3.org/2000/svg">
<g clip-path="url(#clip0_2_438)">
<path d="M13 1C10.0149 1 9.6395 1.01375 8.46663 1.066C7.29375 1.121 6.49487 1.30525 5.795 1.5775C5.06088 1.85363 4.39593 2.28676 3.84663 2.84663C3.2871 3.39621 2.85402 4.06108 2.5775 4.795C2.30525 5.4935 2.11963 6.29375 2.066 7.4625C2.01375 8.63812 2 9.01213 2 12.0014C2 14.9879 2.01375 15.3619 2.066 16.5347C2.121 17.7062 2.30525 18.5051 2.5775 19.205C2.85938 19.9282 3.23475 20.5415 3.84663 21.1534C4.45713 21.7652 5.07037 22.142 5.79363 22.4225C6.49487 22.6947 7.29238 22.8804 8.46388 22.934C9.63813 22.9862 10.0121 23 13 23C15.9879 23 16.3605 22.9862 17.5347 22.934C18.7049 22.879 19.5065 22.6947 20.2064 22.4225C20.94 22.1462 21.6045 21.7131 22.1534 21.1534C22.7652 20.5415 23.1406 19.9282 23.4225 19.205C23.6934 18.5051 23.879 17.7062 23.934 16.5347C23.9862 15.3619 24 14.9879 24 12C24 9.01213 23.9862 8.63813 23.934 7.46388C23.879 6.29375 23.6934 5.4935 23.4225 4.795C23.146 4.06106 22.7129 3.39618 22.1534 2.84663C21.6042 2.28655 20.9392 1.85339 20.205 1.5775C19.5037 1.30525 18.7035 1.11963 17.5334 1.066C16.3591 1.01375 15.9865 1 12.9973 1H13.0014H13ZM12.0141 2.98275H13.0014C15.9384 2.98275 16.2862 2.99238 17.4454 3.046C18.5179 3.09413 19.1009 3.27425 19.4886 3.42412C20.0015 3.6235 20.3686 3.86275 20.7536 4.24775C21.1386 4.63275 21.3765 4.9985 21.5759 5.51275C21.7271 5.89913 21.9059 6.48213 21.954 7.55463C22.0076 8.71375 22.0186 9.06163 22.0186 11.9973C22.0186 14.9329 22.0076 15.2821 21.954 16.4412C21.9059 17.5138 21.7258 18.0954 21.5759 18.4831C21.3995 18.9607 21.118 19.3926 20.7522 19.7467C20.3672 20.1318 20.0015 20.3696 19.4873 20.569C19.1023 20.7203 18.5192 20.899 17.4454 20.9485C16.2862 21.0007 15.9384 21.0131 13.0014 21.0131C10.0644 21.0131 9.71513 21.0007 8.556 20.9485C7.4835 20.899 6.90188 20.7203 6.51412 20.569C6.03631 20.3929 5.60405 20.1119 5.24913 19.7467C4.88303 19.392 4.60112 18.9598 4.42412 18.4818C4.27425 18.0954 4.09413 17.5124 4.046 16.4399C3.99375 15.2807 3.98275 14.9329 3.98275 11.9945C3.98275 9.0575 3.99375 8.711 4.046 7.55187C4.0955 6.47937 4.27425 5.89638 4.4255 5.50863C4.62488 4.99575 4.86413 4.62862 5.24913 4.24362C5.63412 3.85862 5.99987 3.62075 6.51412 3.42138C6.90188 3.27012 7.4835 3.09138 8.556 3.04188C9.57075 2.99513 9.964 2.98137 12.0141 2.98V2.98275ZM18.8726 4.80875C18.6993 4.80875 18.5276 4.84289 18.3675 4.90923C18.2073 4.97557 18.0618 5.0728 17.9392 5.19537C17.8167 5.31794 17.7194 5.46346 17.6531 5.62361C17.5868 5.78376 17.5526 5.9554 17.5526 6.12875C17.5526 6.30209 17.5868 6.47374 17.6531 6.63389C17.7194 6.79404 17.8167 6.93956 17.9392 7.06213C18.0618 7.1847 18.2073 7.28193 18.3675 7.34827C18.5276 7.41461 18.6993 7.44875 18.8726 7.44875C19.2227 7.44875 19.5585 7.30968 19.806 7.06213C20.0536 6.81458 20.1926 6.47884 20.1926 6.12875C20.1926 5.77866 20.0536 5.44292 19.806 5.19537C19.5585 4.94782 19.2227 4.80875 18.8726 4.80875ZM13.0014 6.3515C12.2521 6.33981 11.508 6.47729 10.8123 6.75594C10.1167 7.0346 9.48346 7.44885 8.94946 7.97458C8.41546 8.50032 7.99138 9.12703 7.70191 9.81823C7.41244 10.5094 7.26336 11.2513 7.26336 12.0007C7.26336 12.7501 7.41244 13.4919 7.70191 14.1831C7.99138 14.8743 8.41546 15.5011 8.94946 16.0268C9.48346 16.5525 10.1167 16.9668 10.8123 17.2454C11.508 17.5241 12.2521 17.6616 13.0014 17.6499C14.4844 17.6267 15.8988 17.0214 16.9393 15.9645C17.9799 14.9076 18.5631 13.4839 18.5631 12.0007C18.5631 10.5175 17.9799 9.09382 16.9393 8.03691C15.8988 6.97999 14.4844 6.37464 13.0014 6.3515ZM13.0014 8.33288C13.974 8.33288 14.9067 8.71923 15.5944 9.40695C16.2821 10.0947 16.6685 11.0274 16.6685 12C16.6685 12.9726 16.2821 13.9053 15.5944 14.593C14.9067 15.2808 13.974 15.6671 13.0014 15.6671C12.0288 15.6671 11.096 15.2808 10.4083 14.593C9.72061 13.9053 9.33425 12.9726 9.33425 12C9.33425 11.0274 9.72061 10.0947 10.4083 9.40695C11.096 8.71923 12.0288 8.33288 13.0014 8.33288Z" fill="#1BA0AB"/>
</g>
<defs>
<clipPath id="clip0_2_438">
<rect width="24" height="24" fill="white" transform="translate(0.5)"/>
</clipPath>
</defs>
</svg>

<svg width="25" height="24" fill="none" xmlns="http://www.w3.org/2000/svg"><g clip-path="url(#a)"><path d="M13 1c-2.985 0-3.36.014-4.533.066-1.173.055-1.972.24-2.672.511-.734.277-1.4.71-1.948 1.27a5.4 5.4 0 0 0-1.27 1.948c-.272.699-.457 1.499-.511 2.668C2.014 8.638 2 9.013 2 12c0 2.987.014 3.36.066 4.534.055 1.171.24 1.97.512 2.67a5.403 5.403 0 0 0 1.269 1.948c.61.612 1.223.989 1.947 1.27.7.272 1.498.457 2.67.511C9.638 22.986 10.012 23 13 23c2.988 0 3.36-.014 4.535-.066 1.17-.055 1.971-.24 2.671-.512a5.386 5.386 0 0 0 1.947-1.269 5.404 5.404 0 0 0 1.27-1.948c.27-.7.456-1.499.511-2.67.052-1.173.066-1.547.066-4.535 0-2.988-.014-3.362-.066-4.536-.055-1.17-.24-1.97-.512-2.669a5.4 5.4 0 0 0-1.269-1.948 5.379 5.379 0 0 0-1.948-1.27c-.701-.272-1.502-.457-2.672-.511C16.36 1.014 15.986 1 12.997 1h.004H13Zm-.986 1.983h.987c2.937 0 3.285.01 4.444.063 1.073.048 1.656.228 2.044.378.512.2.88.439 1.265.824a3.4 3.4 0 0 1 .822 1.265c.151.386.33.97.378 2.042.054 1.159.065 1.507.065 4.442 0 2.936-.011 3.285-.065 4.444-.048 1.073-.228 1.654-.378 2.042-.177.478-.458.91-.824 1.264-.385.385-.75.623-1.265.822-.385.151-.968.33-2.042.38-1.159.052-1.507.064-4.444.064-2.937 0-3.286-.012-4.445-.065-1.072-.049-1.654-.228-2.042-.379a3.407 3.407 0 0 1-1.265-.822 3.41 3.41 0 0 1-.825-1.265c-.15-.387-.33-.97-.378-2.042-.052-1.16-.063-1.507-.063-4.446 0-2.937.01-3.283.063-4.442.05-1.073.228-1.656.38-2.043.199-.513.438-.88.823-1.265.385-.385.75-.623 1.265-.823.388-.15.97-.33 2.042-.38 1.015-.046 1.408-.06 3.458-.061v.003Zm6.859 1.826a1.32 1.32 0 1 0 0 2.64 1.32 1.32 0 0 0 0-2.64ZM13 6.35a5.65 5.65 0 1 0-.176 11.3 5.65 5.65 0 0 0 .176-11.3Zm0 1.982a3.667 3.667 0 1 1 0 7.334 3.667 3.667 0 0 1 0-7.334Z" fill="#1BA0AB"/></g><defs><clipPath id="a"><path fill="#fff" transform="translate(.5)" d="M0 0h24v24H0z"/></clipPath></defs></svg>
